vsi/radio-tower_light.svg

<svg viewBox="0 0 16 16" fill="none" xmlns="http://www.w3.org/2000/svg" height="1em" width="1em">
  <path fill-rule="evenodd" clip-rule="evenodd" d="M2.99866 5.57996C3.00889 4.12421 3.59068 2.73077 4.61865 1.69995L3.90863 1C3.30393 1.59963 2.82401 2.31304 2.49646 3.09912C2.16891 3.88521 2.00024 4.72836 2.00024 5.57996C2.00024 6.43155 2.16891 7.27471 2.49646 8.06079C2.82401 8.84688 3.30393 9.56028 3.90863 10.1599L4.61865 9.45996C3.59068 8.42915 3.00889 7.0357 2.99866 5.57996ZM4.05864 5.57996C4.05606 6.16968 4.17154 6.75392 4.39824 7.29834C4.62493 7.84276 4.95827 8.33639 5.37864 8.75L6.08867 8.03992C5.75999 7.72367 5.50111 7.34217 5.32866 6.91992C5.15018 6.49573 5.05836 6.04016 5.05864 5.57996C5.05723 5.12287 5.14913 4.67035 5.32866 4.25C5.49853 3.82346 5.75767 3.43817 6.08867 3.12L5.37864 2.40991C4.96007 2.82487 4.62792 3.31868 4.40135 3.86279C4.17478 4.4069 4.05828 4.99056 4.05864 5.57996ZM11.7087 8.78992L10.9987 8.07996C11.3285 7.7608 11.5874 7.37578 11.7587 6.94995C11.9371 6.52576 12.029 6.07019 12.0287 5.60999C12.0301 5.1529 11.9382 4.70026 11.7587 4.27991C11.5888 3.85337 11.3297 3.46808 10.9987 3.1499L11.7087 2.44995C12.1265 2.86536 12.4581 3.35929 12.6844 3.90332C12.9107 4.44735 13.0272 5.03079 13.0272 5.62C13.0272 6.2092 12.9107 6.79252 12.6844 7.33655C12.4581 7.88058 12.1265 8.3745 11.7087 8.78992ZM13.0687 1L12.3586 1.70996C12.872 2.21526 13.2798 2.81765 13.5581 3.48206C13.8364 4.14647 13.9797 4.85961 13.9797 5.57996C13.9797 6.3003 13.8364 7.01345 13.5581 7.67786C13.2798 8.34227 12.872 8.94466 12.3586 9.44995L13.0687 10.1599C13.6734 9.56028 14.1533 8.84688 14.4809 8.06079C14.8084 7.27471 14.9771 6.43155 14.9771 5.57996C14.9771 4.72836 14.8084 3.88521 14.4809 3.09912C14.1533 2.31304 13.6734 1.59963 13.0687 1ZM9.99298 5.4303C10.0272 5.77529 9.94088 6.12139 9.74866 6.40991C9.66565 6.49442 9.57527 6.57149 9.47864 6.64001L12.9186 14.37L11.9987 14.7699L11.2286 13.0399H5.68866L4.91864 14.7699L3.99866 14.37L7.43866 6.64001C7.22969 6.42892 7.08718 6.16121 7.02869 5.86999C6.96986 5.58172 6.99765 5.28249 7.10864 5.01001C7.22561 4.73395 7.42014 4.49769 7.66864 4.32995C7.95716 4.13774 8.30338 4.05136 8.64838 4.08557C8.99337 4.11978 9.31583 4.27243 9.56097 4.51758C9.80612 4.76272 9.95877 5.0853 9.99298 5.4303ZM8.39868 5.08996C8.30388 5.1123 8.21726 5.16082 8.14868 5.22998C8.09495 5.29346 8.05718 5.36888 8.03864 5.44995C8.00874 5.5443 8.00874 5.64563 8.03864 5.73999C8.07803 5.83075 8.13999 5.90991 8.21863 5.96997C8.30287 6.02177 8.39976 6.0494 8.49866 6.04993C8.63046 6.04737 8.75615 5.99385 8.84937 5.90063C8.94258 5.80741 8.9961 5.68173 8.99866 5.54993C8.99813 5.45103 8.97044 5.35414 8.91864 5.2699C8.85858 5.19126 8.77943 5.12936 8.68866 5.08996C8.59431 5.06006 8.49304 5.06006 8.39868 5.08996ZM8.62866 7.14001H8.35864L7.48865 9.07995H9.48865L8.62866 7.14001ZM10.8287 12.08L9.93866 10.08H7.05865L6.16864 12.08H10.8287Z" fill="#424242"/>
</svg>

<svg viewBox="0 0 16 16" fill="none" xmlns="http://www.w3.org/2000/svg" height="1em" width="1em">
  <path fill-rule="evenodd" clip-rule="evenodd" d="M2.999 5.58a5.55 5.55 0 0 1 1.62-3.88l-.71-.7a6.45 6.45 0 0 0 0 9.16l.71-.7a5.55 5.55 0 0 1-1.62-3.88Zm1.06 0a4.42 4.42 0 0 0 1.32 3.17l.71-.71a3.27 3.27 0 0 1-.76-1.12 3.45 3.45 0 0 1 0-2.67 3.22 3.22 0 0 1 .76-1.13l-.71-.71a4.46 4.46 0 0 0-1.32 3.17Zm7.65 3.21-.71-.71c.33-.32.588-.704.76-1.13a3.45 3.45 0 0 0 0-2.67 3.22 3.22 0 0 0-.76-1.13l.71-.7a4.471 4.471 0 0 1 0 6.34ZM13.069 1l-.71.71a5.43 5.43 0 0 1 0 7.74l.71.71a6.45 6.45 0 0 0 0-9.16ZM9.993 5.43a1.5 1.5 0 0 1-.244.98 2.001 2.001 0 0 1-.27.23l3.44 7.73-.92.4-.77-1.73h-5.54l-.77 1.73-.92-.4 3.44-7.73a1.52 1.52 0 0 1-.33-1.63 1.55 1.55 0 0 1 .56-.68 1.5 1.5 0 0 1 2.324 1.1Zm-1.594-.34a.52.52 0 0 0-.25.14.52.52 0 0 0-.11.22.48.48 0 0 0 0 .29c.039.09.101.17.18.23a.54.54 0 0 0 .28.08.51.51 0 0 0 .5-.5.54.54 0 0 0-.08-.28.58.58 0 0 0-.23-.18.48.48 0 0 0-.29 0Zm.23 2.05h-.27l-.87 1.94h2l-.86-1.94Zm2.2 4.94-.89-2h-2.88l-.89 2h4.66Z" fill="#424242"/>
</svg>
